X: 1
T: String Quartet in G major opus 1 no 4 mvt 4
C: Franz Joseph Haydn
%%abc-version 2.0
%%abcx-abcm2ps-target-version 5.9.1 (29 Sep 2008)
%%abc-creator hum2abc beta
%%abcx-conversion-date 2021/02/14 14:38:31
%%abc-copyright Copyright (c) 1994, 2000 Center for Computer Assisted Research in the Humanities
%%abc-edited-by Frances Bennion
%%abcx-initial-encoding-date 1997/04/15
%%gracespace 0 6 6
%%humdrum-veritas 908589146
%%humdrum-veritas-data 99998741
%%linebreak <none>
%%barnumbers 0
L: 1/4
M: 3/4
N: Derived from op01n4-04.krn
Q: "Minuetto II"
%%staves [1 2 3 4]
V: 1
V: 2
V: 3 clef=alto
V: 4 clef=bass
K: G
[V:1]G >A B [I:setbarnb2] |
[V:2]G, >A, B, |
[V:3]G, B G |
[V:4]G,, B, G, |
[V:1]c A A |
[V:2]C A, A, |
[V:3]A F D |
[V:4]A, F, D, |
[V:1]B B ^c3//B/8c/8 |
[V:2]B, B, ^C3//B,/8C/8 |
[V:3]G E A |
[V:4]G, E, A, |
[V:1]d2 z |
[V:2]D2 z |
[V:3]F A/F/ D |
[V:4]F, A,/F,/ D, |
[V:1]e e f3//e/8f/8 |
[V:2]E E F3//E/8F/8 |
[V:3]C c A |
[V:4]C, C A, |
[V:1]g g/>a/ b3//c'// |
[V:2]G >>A B3//c// |
[V:3]B G, G3//A// |
[V:4]B, G,, G,3//A,// |
[V:1]d' c' b3//a/8b/8 |
[V:2]d c B3//A/8B/8 |
[V:3]B F G |
[V:4]B, F, G, |
[V:1]a z2 |
[V:2]A z2 |
[V:3]d D z |
[V:4]D D, z |
[V:1]a >b c' |
[V:2]f3 |
[V:3]c3 |
[V:4]D, D, D, |
[V:1]b3//a/8b/8 d' z |
[V:2]g3 |
[V:3]B3 |
[V:4]D, D, D, |
[V:1]f >g a |
[V:2]c3 |
[V:3]F3 |
[V:4]D, D, D, |
[V:1]g/f//e// d z |
[V:2]B3 |
[V:3]G3 |
[V:4]D, D, D, |
[V:1]A >B c |
[V:2]F3 |
[V:3]C3 |
[V:4]D, D, D, |
[V:1]B3//A/8B/8 d z |
[V:2]G3 |
[V:3]B,3 |
[V:4]D, D, D, |
[V:1]d >c B |
[V:2]B >A G |
[V:3]D D D |
[V:4]D, D, D, |
[V:1]B A z |
[V:2]G F z |
[V:3]D D, z |
[V:4]D, D,, z |
[V:1]G >A B |
[V:2]G, >A, B, |
[V:3]G, B G |
[V:4]G,, B, G, |
[V:1]c A A |
[V:2]C A, A, |
[V:3]A F D |
[V:4]A, F, D, |
[V:1]B B ^c3//B/8c/8 |
[V:2]B, B, ^C3//B,/8C/8 |
[V:3]G E A |
[V:4]G, E, A, |
[V:1]d2 z |
[V:2]D2 z |
[V:3]F A/F/ D |
[V:4]F, A,/F,/ D, |
[V:1]e e f3//e/8f/8 |
[V:2]E E F3//E/8F/8 |
[V:3]C c A |
[V:4]C, C A, |
[V:1]g g/>a/ b3//c'// |
[V:2]G >>A B3//c// |
[V:3]B G z |
[V:4]B, G, z |
[V:1]d' d' d' |
[V:2]d d d |
[V:3]G, B G |
[V:4]G,, B, G, |
[V:1]c' >a b |
[V:2]c >A B |
[V:3]E F G |
[V:4]E, F, G, |
[V:1]a g f |
[V:2]A G F |
[V:3]c d D |
[V:4]C D D, |
[V:1]g2 z |
[V:2]G3 |
[V:3]G D/B,/ G, |
[V:4]G, D,/B,,/ G,, |
[V:1]G d/c/ _B/A/ |
[V:2]z3 |
[V:3]G, _B, D |
[V:4]G,, _B,, D, |
[V:1]_B >A G/F/ |
[V:2]G d/c/ _B/A/ |
[V:3]G z d |
[V:4]G, z D |
[V:1]G d/c/ _B/A/ |
[V:2]_B >A G/F/ |
[V:3]G z D |
[V:4]G, z D, |
[V:1]_B >A G/F/ |
[V:2]G d/c/ _B/A/ |
[V:3]G z d |
[V:4]G, z D |
[V:1]G _B d |
[V:2]_B >A G/F/ |
[V:3]G z d |
[V:4]G, z D |
[V:1]g d c |
[V:2]G _B d |
[V:3]_B z F |
[V:4]_B, z F, |
[V:1]_B2 A |
[V:2]g d c |
[V:3]G z F |
[V:4]G, z F, |
[V:1]G _e d |
[V:2]_B B A |
[V:3]G G =F |
[V:4]G, G, =F, |
[V:1]c >A _B |
[V:2]G2 =F |
[V:3]_E2 D |
[V:4]_E,2 D, |
[V:1]c >A _B |
[V:2]G2 =F |
[V:3]_E2 D |
[V:4]_E,2 D, |
[V:1](3g/=f/_e/ d c |
[V:2](3_e/d/c/ _B A |
[V:3]_E =F =F, |
[V:4]_E, =F, =F,, |
[V:1]_B2 z |
[V:2]_B2 z |
[V:3]_B, _B z |
[V:4]_B,, _B, z |
[V:1]_B =f/_e/ d/c/ |
[V:2]z3 |
[V:3]z3 |
[V:4]z3 |
[V:1]d >c _B/A/ |
[V:2]_B, =F/_E/ D/C/ |
[V:3]z3 |
[V:4]z3 |
[V:1]_B =B2 |
[V:2]D D2 |
[V:3]_B, G/=F/ _E/D/ |
[V:4]_B,, G,/=F,/ _E,/D,/ |
[V:1]c g/=f/ _e/d/ |
[V:2]_E z2 |
[V:3]C z2 |
[V:4]C, z2 |
[V:1]_e >d c/B/ |
[V:2]C G/=F/ _E/D/ |
[V:3]z3 |
[V:4]z3 |
[V:1]c ^c2 |
[V:2]_E =E2 |
[V:3]C A/G/ F/E/ |
[V:4]C, A,/G,/ F,/E,/ |
[V:1]d z _e |
[V:2]F _e/d/ c/_B/ |
[V:3]D c/_B/ A/G/ |
[V:4]D, z2 |
[V:1]_e d2- |
[V:2]A d/c/ _B/A/ |
[V:3]F _B/A/ G/F/ |
[V:4]D, z2 |
[V:1]d c2- |
[V:2]G c/_B/ A/G/ |
[V:3]_E A/G/ F/=E/ |
[V:4]D, z2 |
[V:1]c _B/A/ G/=F/ |
[V:2]F G G/=F/ |
[V:3]D G, G/=F/ |
[V:4]D, G,, G,/=F,/ |
[V:1]_E/D/ C/_B,/ A,/G,/ |
[V:2]_E/D/ C/_B,/ A,/G,/ |
[V:3]_E/D/ C/_B,/ A,/G,/ |
[V:4]_E,/D,/ C,/_B,,/ A,,/G,,/ |
[V:1]D z2 |
[V:2]D z2 |
[V:3]D z2 |
[V:4]D, z2 |
[V:1]G d/c/ _B/A/ |
[V:2]z3 |
[V:3]G, _B, D |
[V:4]G,, _B,, D, |
[V:1]_B >A G/F/ |
[V:2]G d/c/ _B/A/ |
[V:3]G z D |
[V:4]G, z D, |
[V:1]G d/c/ _B/A/ |
[V:2]_B >A G/F/ |
[V:3]G z D |
[V:4]G, z D, |
[V:1]_B g/=f/ _e/d/ |
[V:2]G z G |
[V:3]G z B |
[V:4]G, z B, |
[V:1]_e c'/_b/ a/g/ |
[V:2]G _e/d/ c/_B/ |
[V:3]c z2 |
[V:4]C z2 |
[V:1]f2 g |
[V:2]A2 _B |
[V:3]D d/c/ _B |
[V:4]D, D/C/ _B, |
[V:1](3_e/d/c/ _B A |
[V:2](3c/_B/A/ G F |
[V:3]c d D |
[V:4]C D D, |
[V:1]G2 z |]
[V:2]G2 z |]
[V:3]G D G, |]
[V:4]G, D, G,, |]

